X: 348
T: Na Purt
O: Bulgaria
F: http://www.youtube.com/watch?v=XsCcidA-bww
M: 2/4
L: 1/16
Q: 1/4=132
P:ABCBCD2
K: Gm
%%MIDI gchord fzfz
%%MIDI program 22 Harmonica
%%MIDI bassprog 45
P:A
|:"g"B2A2"d"AGF2|"g"G4 "d"c2d2|"g"B2A2 "d"AGF2|"g"G4 "d" G4:|
P:B
|:"g"d2e2"bb"d2zc|"g"d2e2"bb"d2zc|"g"c3B"bb"c2d2|"g"B2A2G4:|
P:C
|:"g"B4"b"zFGA|"d"B4"g"c4|"d"c2B2c2d2|"g"B2A2G4:|
P:D
|:"g"G4B2A2|.G2.G2F=ED2|G4B2A2|.G2.G2G4:|



